X: 1
T: Rullande Gubben   (Sl\"angpolska)
C: Trad.
R: sl\"ang-polska
S: http://www.nyckelharpa.org/archive/written-music/american-allspel-list/ 2022/10/1
Z: 2022 John Chambers <jc:trillian.mit.edu>
M: 3/4
L: 1/16
Q: 1/4=96
K: Am
|:\
"A "(A2c2) c2dc "G"(B2G2) | (G2B2) B2cB "Am"A4 :|\
|:\
"Am"e4 e2ef e2c2 | "C"(e2g2) g2ga g2e2 |\
"Am"e4 e2ef e2c2 | "C"c2d2c2 "G"B2cB "Am"A4 :|
